X:1
T:Cotton Grass Flowers (Morrison's / Paddy Stacks Fancy Jig)
M:9/8
L:1/8
R:slip jig
D:Cormac Breatnach and Martin Dunlea: Music for Whistle and Guitar
Z:Devin McCabe
K:G
ABG AGE GED|(3EFG D DEG ABc|BGG AGE GED|EGD DEF G2A:|
|:Bdd ded BAG|Bdd edB A2z|Bdd ded BAG|AGE DEF G2A:|
